source/img/svg/logo.svg

<?xml version="1.0" encoding="UTF-8"?>
<svg xmlns="http://www.w3.org/2000/svg" xmlns:xlink="http://www.w3.org/1999/xlink" width="86pt" height="35pt" viewBox="0 0 86 35" version="1.1">
<g id="surface1">
<path style=" stroke:none;fill-rule:nonzero;fill-opacity:1;" d="M 4.21875 26.109375 C 4.21875 22.675781 3.929688 19.242188 3.859375 15.738281 C 3.859375 15.378906 3.859375 15.09375 3.859375 14.734375 C 3.929688 14.878906 3.929688 14.949219 4.003906 15.09375 C 4.582031 16.453125 5.085938 17.738281 5.882812 18.957031 C 6.605469 20.171875 6.964844 21.53125 7.398438 22.890625 C 7.253906 23.105469 7.109375 23.246094 7.183594 23.460938 C 7.183594 23.605469 7.253906 23.675781 7.398438 23.746094 C 7.90625 24.175781 8.988281 23.960938 9.496094 23.746094 C 9.710938 23.675781 10 23.535156 10.21875 23.390625 C 10.507812 23.175781 10.941406 22.816406 10.867188 22.390625 C 10.867188 22.316406 10.796875 22.246094 10.796875 22.175781 C 11.230469 21.101562 11.375 20.027344 11.589844 18.882812 C 11.808594 17.667969 12.242188 16.523438 12.675781 15.449219 C 12.746094 15.949219 12.746094 16.453125 12.820312 17.023438 C 12.964844 19.171875 12.820312 21.246094 12.820312 23.390625 C 12.820312 24.105469 12.890625 24.75 13.035156 25.464844 C 13.109375 25.75 13.324219 26.964844 13.253906 27.039062 C 12.746094 27.539062 12.890625 28.109375 13.613281 28.253906 C 14.410156 28.398438 15.351562 28.183594 15.929688 27.609375 C 16.941406 26.679688 16.433594 25.25 16.21875 24.035156 C 15.855469 22.101562 16.289062 19.886719 16.21875 17.882812 C 16.144531 15.664062 15.785156 13.375 15.785156 11.160156 C 15.785156 9.371094 16.144531 7.4375 15.496094 5.722656 C 15.566406 5.507812 15.566406 5.292969 15.640625 5.148438 C 15.785156 4.292969 12.890625 4.722656 12.386719 5.507812 C 12.097656 5.722656 11.953125 6.007812 12.097656 6.292969 C 12.097656 6.367188 12.167969 6.4375 12.167969 6.507812 C 11.589844 9.15625 10.867188 11.800781 9.929688 14.378906 C 9.566406 15.378906 9.207031 16.308594 8.84375 17.308594 C 8.339844 16.378906 7.832031 15.449219 7.472656 14.449219 C 6.316406 11.585938 5.230469 8.65625 3.859375 5.9375 C 4.003906 4.648438 1.183594 4.792969 0.605469 5.9375 C -0.0429688 7.367188 0.0273438 8.796875 0.246094 10.300781 C 0.535156 12.015625 0.535156 13.664062 0.535156 15.378906 C 0.605469 18.667969 0.824219 22.03125 0.894531 25.320312 C 0.605469 25.679688 0.535156 26.035156 0.824219 26.464844 C 0.96875 26.679688 1.113281 26.753906 1.328125 26.894531 C 2.125 27.46875 4.292969 26.964844 4.292969 25.820312 Z M 4.21875 26.109375 "/>
<path style=" stroke:none;fill-rule:nonzero;fill-opacity:1;" d="M 22.503906 7.867188 C 22.433594 7.222656 19.109375 7.941406 19.179688 8.726562 C 19.46875 10.515625 19.324219 12.230469 19.324219 14.019531 C 19.324219 15.738281 19.6875 17.308594 19.976562 18.957031 C 20.191406 20.671875 19.902344 22.460938 20.121094 24.175781 C 20.191406 24.964844 20.769531 26.464844 20.191406 27.179688 C 19.832031 27.609375 21.421875 27.46875 21.492188 27.46875 C 22.144531 27.324219 23.011719 27.109375 23.445312 26.609375 C 24.023438 25.894531 23.589844 24.605469 23.515625 23.820312 C 23.226562 22.101562 23.445312 20.3125 23.371094 18.597656 C 23.300781 16.953125 22.722656 15.378906 22.722656 13.664062 C 22.722656 11.730469 22.867188 9.800781 22.578125 7.867188 Z M 22.503906 7.867188 "/>
<path style=" stroke:none;fill-rule:nonzero;fill-opacity:1;" d="M 25.613281 14.449219 C 26.550781 16.953125 30.308594 15.738281 32.191406 15.878906 C 35.441406 16.09375 34.503906 20.457031 34.503906 22.460938 C 34.503906 23.535156 35.515625 25.320312 34.648438 26.25 C 34.140625 26.824219 32.984375 26.824219 32.261719 26.894531 C 31.539062 26.964844 30.382812 27.179688 29.949219 26.539062 C 29.082031 25.320312 30.019531 23.390625 29.875 22.03125 C 29.804688 21.246094 26.40625 21.960938 26.550781 22.890625 C 26.839844 25.105469 25.394531 28.039062 28.574219 28.398438 C 30.671875 28.613281 32.984375 28.253906 34.9375 27.609375 C 35.949219 27.253906 36.886719 26.824219 37.683594 26.109375 C 38.550781 25.320312 38.261719 24.175781 38.042969 23.175781 C 37.464844 20.742188 38.695312 17.953125 37.03125 15.738281 C 35.296875 13.375 32.046875 15.09375 29.804688 14.449219 C 28.648438 14.089844 28.648438 12.519531 28.648438 11.585938 C 28.648438 10.371094 28.574219 9.300781 28.429688 8.15625 C 28.359375 7.296875 28.429688 6.367188 29.082031 5.722656 C 29.226562 5.578125 29.804688 5.4375 29.730469 5.4375 C 30.019531 5.363281 30.308594 5.363281 30.671875 5.363281 C 31.972656 5.292969 34.574219 5.578125 34.070312 7.4375 C 33.851562 8.296875 37.105469 7.796875 37.320312 6.9375 C 38.332031 3.074219 31.175781 3.863281 29.152344 4.363281 C 27.273438 4.863281 25.25 5.9375 25.105469 8.011719 C 25.035156 9.011719 25.324219 10.015625 25.394531 11.015625 C 25.46875 12.160156 25.25 13.304688 25.613281 14.449219 Z M 25.613281 14.449219 "/>
<path style=" stroke:none;fill-rule:nonzero;fill-opacity:1;" d="M 40.140625 16.308594 C 40.066406 18.097656 39.921875 19.886719 39.921875 21.671875 C 39.921875 22.601562 40.066406 23.535156 40.210938 24.390625 C 40.355469 25.25 40.644531 26.324219 40.355469 27.179688 C 40.140625 27.824219 43.390625 27.394531 43.609375 26.609375 C 44.042969 25.105469 43.390625 23.246094 43.246094 21.746094 C 43.101562 20.3125 43.246094 18.8125 43.320312 17.382812 C 45.054688 17.238281 46.714844 17.167969 48.453125 17.382812 C 48.523438 18.527344 48.597656 19.671875 48.742188 20.816406 C 48.8125 21.816406 48.886719 22.746094 48.886719 23.746094 C 48.886719 24.605469 49.03125 25.820312 48.667969 26.609375 C 48.019531 28.324219 51.34375 28.183594 51.847656 26.894531 C 52.425781 25.320312 52.28125 23.390625 52.136719 21.746094 C 51.992188 19.671875 51.703125 17.667969 51.632812 15.59375 C 51.558594 12.445312 51.054688 9.300781 51.054688 6.152344 C 51.054688 4.507812 47.730469 5.078125 47.730469 6.4375 C 47.730469 9.441406 48.164062 12.445312 48.308594 15.449219 C 48.308594 15.523438 48.308594 15.59375 48.308594 15.664062 C 46.644531 15.664062 44.980469 15.808594 43.390625 15.878906 C 43.535156 12.015625 42.886719 8.15625 43.03125 4.292969 C 43.03125 3.792969 39.777344 4.21875 39.707031 5.148438 C 39.5625 8.871094 40.210938 12.589844 40.066406 16.378906 Z M 40.140625 16.308594 "/>
<path style=" stroke:none;fill-rule:nonzero;fill-opacity:1;" d="M 54.234375 21.671875 C 53.945312 21.960938 54.089844 22.101562 54.304688 22.175781 C 54.304688 23.605469 54.234375 25.105469 54.160156 26.539062 C 53.726562 27.179688 54.523438 27.46875 55.101562 27.46875 C 55.101562 27.46875 55.171875 27.46875 55.171875 27.46875 C 55.824219 27.46875 57.414062 27.179688 57.484375 26.324219 C 57.628906 24.535156 57.703125 22.816406 57.703125 21.03125 C 59.074219 19.597656 60.160156 18.027344 61.097656 16.308594 C 61.75 17.523438 62.328125 18.8125 62.761719 20.171875 C 63.484375 22.460938 64.714844 24.605469 65.4375 26.894531 C 65.871094 28.398438 69.195312 27.539062 68.761719 26.035156 C 68.039062 23.746094 66.882812 21.601562 66.085938 19.3125 C 65.292969 17.023438 64.0625 14.949219 63.050781 12.804688 C 63.917969 11.160156 64.785156 9.511719 65.507812 7.867188 C 66.230469 6.367188 66.738281 4.648438 68.109375 3.578125 C 68.617188 3.21875 68.542969 2.859375 67.894531 2.789062 C 67.171875 2.71875 66.160156 2.933594 65.582031 3.433594 C 64.351562 4.433594 63.558594 5.578125 62.90625 7.011719 C 62.109375 8.726562 61.316406 10.441406 60.449219 12.089844 C 60.375 12.230469 60.304688 12.304688 60.230469 12.445312 C 59.796875 12.730469 59.582031 13.089844 59.726562 13.519531 C 59.074219 14.804688 58.351562 16.09375 57.628906 17.382812 C 57.339844 12.730469 56.835938 8.15625 56.691406 3.503906 C 56.617188 2.433594 53.367188 3.074219 53.367188 4.363281 C 53.582031 10.085938 54.378906 15.878906 54.449219 21.601562 C 54.449219 21.601562 54.449219 21.601562 54.378906 21.671875 Z M 54.234375 21.671875 "/>
<path style=" stroke:none;fill-rule:nonzero;fill-opacity:1;" d="M 85.890625 15.449219 C 85.746094 14.734375 84.734375 14.734375 83.9375 14.804688 C 83.9375 14.519531 83.9375 14.234375 83.9375 13.949219 C 83.867188 11.730469 83.792969 9.441406 83.578125 7.222656 C 83.433594 5.148438 82.203125 4.433594 80.253906 4.507812 C 78.226562 4.578125 75.84375 4.933594 73.890625 5.652344 C 71.652344 6.507812 70.421875 8.082031 70.0625 10.371094 C 69.628906 12.875 70.277344 15.59375 70.351562 18.097656 C 70.496094 21.03125 70.421875 23.960938 70.421875 26.894531 C 70.421875 27.394531 73.746094 26.894531 73.746094 26.035156 C 73.746094 23.746094 73.820312 21.386719 73.746094 19.097656 C 73.746094 18.382812 73.675781 17.738281 73.675781 17.023438 C 74.832031 16.523438 76.78125 17.023438 77.9375 17.167969 C 78.878906 17.238281 79.746094 17.023438 80.6875 16.953125 C 80.6875 18.882812 80.757812 20.816406 80.832031 22.746094 C 80.902344 23.746094 81.265625 25.679688 80.542969 26.539062 C 80.179688 26.964844 81.769531 26.824219 81.84375 26.824219 C 82.492188 26.679688 83.359375 26.464844 83.792969 25.964844 C 84.589844 25.035156 84.15625 22.816406 84.15625 21.671875 C 84.082031 20.101562 84.082031 18.453125 84.011719 16.882812 C 85.023438 16.738281 86.035156 16.164062 85.890625 15.449219 Z M 79.167969 15.308594 C 77.214844 15.234375 75.335938 14.949219 73.53125 15.378906 C 73.457031 14.304688 73.3125 13.304688 73.242188 12.230469 C 73.097656 10.300781 73.3125 7.582031 75.191406 6.367188 C 75.699219 6.078125 76.636719 6.078125 77.214844 6.007812 C 78.011719 5.867188 78.878906 5.652344 79.601562 6.152344 C 80.613281 6.796875 80.398438 9.226562 80.398438 10.230469 C 80.398438 11.875 80.542969 13.589844 80.6875 15.234375 C 80.253906 15.308594 79.746094 15.308594 79.242188 15.308594 Z M 79.167969 15.308594 "/>
<path style=" stroke:none;fill-rule:nonzero;fill-opacity:1;" d="M 18.820312 4.078125 C 18.746094 4.21875 18.820312 4.433594 18.964844 4.578125 C 18.964844 4.648438 18.964844 4.648438 18.964844 4.722656 C 18.964844 4.792969 18.964844 4.933594 18.964844 5.007812 C 19.035156 5.222656 19.179688 5.363281 19.324219 5.4375 C 19.6875 5.652344 20.046875 5.652344 20.410156 5.652344 C 20.84375 5.578125 21.277344 5.4375 21.636719 5.222656 C 21.710938 5.148438 21.78125 5.078125 21.855469 5.007812 C 22.289062 4.722656 22.648438 4.292969 22.503906 3.863281 C 22.070312 2.933594 22.144531 2.003906 22.144531 1 C 22.144531 0.214844 21.347656 -0.0703125 20.625 0 C 20.046875 0.0703125 18.820312 0.5 18.820312 1.289062 C 18.820312 2.144531 18.746094 3.003906 18.890625 3.792969 C 18.820312 3.863281 18.820312 4.003906 18.820312 4.078125 Z M 18.820312 4.078125 "/>
<path style=" stroke:none;fill-rule:nonzero;fill-opacity:1;" d="M 80.613281 33.046875 C 79.023438 32.472656 77.289062 32.402344 75.769531 32.261719 C 74.179688 32.117188 72.519531 31.832031 70.855469 31.6875 C 69.195312 31.757812 67.53125 31.6875 65.871094 31.832031 L 60.953125 32.117188 C 54.449219 32.402344 47.875 32.402344 41.367188 32.1875 C 34.792969 32.046875 28.285156 31.6875 21.636719 31.757812 C 18.3125 31.757812 15.058594 31.832031 11.734375 31.972656 C 10.074219 32.261719 8.484375 32.472656 6.820312 32.902344 C 5.230469 33.332031 3.640625 33.832031 1.980469 33.976562 C 3.640625 34.335938 5.304688 34.261719 6.964844 34.261719 C 8.554688 34.261719 10.21875 34.40625 11.878906 34.476562 C 15.132812 34.335938 18.386719 34.261719 21.636719 34.191406 C 28.140625 34.191406 34.71875 34.546875 41.296875 34.621094 C 47.875 34.761719 54.449219 34.835938 61.027344 34.476562 L 65.941406 34.191406 C 67.53125 34.121094 69.121094 34.046875 70.785156 34.121094 C 72.445312 33.976562 74.035156 33.761719 75.699219 33.617188 C 77.359375 33.40625 78.953125 32.976562 80.542969 33.117188 L 80.613281 33.117188 L 80.613281 33.046875 C 80.613281 32.902344 80.542969 32.761719 80.542969 32.546875 C 80.542969 32.6875 80.46875 32.832031 80.46875 32.902344 Z M 80.613281 33.046875 "/>
</g>
</svg>

<svg xmlns="http://www.w3.org/2000/svg" width="86pt" height="35pt" viewBox="0 0 86 35"><path d="M4.219 26.11c0-3.434-.29-6.868-.36-10.372v-1.004c.07.145.07.215.145.36.578 1.36 1.082 2.644 1.879 3.863.722 1.215 1.082 2.574 1.515 3.934-.144.214-.289.355-.214.57 0 .144.07.215.214.285.508.43 1.59.215 2.098 0 .215-.07.504-.21.723-.355.289-.215.722-.575.648-1 0-.075-.07-.145-.07-.215.433-1.074.578-2.149.793-3.293.219-1.215.652-2.36 1.086-3.434.07.5.07 1.004.144 1.574.145 2.149 0 4.223 0 6.368 0 .714.07 1.359.215 2.074.074.285.29 1.5.219 1.574-.508.5-.363 1.07.36 1.215.796.144 1.738-.07 2.316-.645 1.011-.93.504-2.359.289-3.574-.364-1.933.07-4.148 0-6.152-.074-2.219-.434-4.508-.434-6.723 0-1.789.36-3.723-.289-5.437.07-.215.07-.43.145-.575.144-.855-2.75-.425-3.254.36-.29.215-.434.5-.29.785 0 .074.071.144.071.215-.578 2.648-1.3 5.293-2.238 7.87-.364 1-.723 1.93-1.086 2.93-.504-.93-1.012-1.859-1.371-2.859-1.157-2.863-2.243-5.793-3.614-8.511.145-1.29-2.675-1.145-3.254 0C-.043 7.367.027 8.796.246 10.3c.29 1.715.29 3.363.29 5.078.07 3.289.288 6.652.359 9.941-.29.36-.36.715-.07 1.145.144.215.288.289.503.43.797.574 2.965.07 2.965-1.075zM22.504 7.867c-.07-.644-3.395.074-3.324.86.289 1.789.144 3.503.144 5.293 0 1.718.363 3.289.653 4.937.214 1.715-.075 3.504.144 5.219.07.789.649 2.289.07 3.004-.359.43 1.23.289 1.301.289.653-.145 1.52-.36 1.953-.86.578-.714.145-2.004.07-2.789-.288-1.718-.07-3.508-.144-5.222-.07-1.645-.648-3.22-.648-4.934 0-1.934.144-3.863-.145-5.797zm3.109 6.583c.938 2.503 4.696 1.288 6.578 1.429 3.25.215 2.313 4.578 2.313 6.582 0 1.074 1.012 2.86.144 3.789-.507.574-1.664.574-2.386.645-.723.07-1.88.285-2.313-.356-.867-1.219.07-3.148-.074-4.508-.07-.785-3.469-.07-3.324.86.289 2.214-1.156 5.148 2.023 5.507 2.098.215 4.41-.144 6.363-.789 1.012-.355 1.95-.785 2.747-1.5.867-.789.578-1.933.359-2.933-.578-2.434.652-5.223-1.012-7.438-1.734-2.363-4.984-.644-7.226-1.289-1.157-.36-1.157-1.93-1.157-2.863a26.6 26.6 0 00-.218-3.43c-.07-.86 0-1.789.652-2.433.145-.145.723-.285.648-.285.29-.075.579-.075.942-.075 1.3-.07 3.902.215 3.398 2.074-.218.86 3.035.36 3.25-.5 1.012-3.863-6.144-3.074-8.168-2.574-1.879.5-3.902 1.574-4.047 3.649-.07 1 .22 2.004.29 3.004.074 1.144-.145 2.289.218 3.433zm14.527 1.859c-.074 1.789-.218 3.578-.218 5.363 0 .93.144 1.863.289 2.719.144.859.434 1.933.144 2.789-.214.644 3.036.215 3.254-.57.434-1.505-.218-3.364-.363-4.864-.144-1.433 0-2.933.074-4.363 1.735-.145 3.395-.215 5.133 0 .07 1.144.145 2.289.29 3.433.07 1 .144 1.93.144 2.93 0 .86.144 2.074-.219 2.863-.648 1.715 2.676 1.575 3.18.286.578-1.575.433-3.504.289-5.149-.145-2.074-.434-4.078-.504-6.152-.074-3.149-.578-6.293-.578-9.442 0-1.644-3.325-1.074-3.325.285 0 3.004.434 6.008.579 9.012v.215c-1.664 0-3.329.145-4.918.215.144-3.863-.504-7.723-.36-11.586 0-.5-3.254-.074-3.324.855-.145 3.723.504 7.442.36 11.23zm14.094 5.363c-.289.289-.144.43.07.504 0 1.43-.07 2.93-.144 4.363-.433.64.363.93.942.93h.07c.652 0 2.242-.29 2.312-1.145.145-1.789.22-3.508.22-5.293 1.37-1.433 2.456-3.004 3.394-4.722a22.9 22.9 0 011.664 3.863c.722 2.289 1.953 4.433 2.675 6.723.434 1.503 3.758.644 3.325-.86-.723-2.289-1.88-4.433-2.676-6.723-.793-2.289-2.023-4.363-3.035-6.507.867-1.645 1.734-3.293 2.457-4.938.722-1.5 1.23-3.219 2.601-4.289.508-.36.434-.719-.214-.789-.723-.07-1.735.145-2.313.645-1.23 1-2.023 2.144-2.676 3.578-.797 1.715-1.59 3.43-2.457 5.078-.074.14-.144.215-.219.355-.433.285-.648.645-.503 1.075-.653 1.285-1.375 2.574-2.098 3.863-.29-4.653-.793-9.227-.938-13.88-.074-1.07-3.324-.429-3.324.86.215 5.723 1.012 11.516 1.082 17.239l-.07.07zM85.89 15.45c-.144-.716-1.156-.716-1.953-.645v-.856c-.07-2.219-.144-4.508-.359-6.726-.144-2.075-1.375-2.79-3.324-2.715-2.027.07-4.41.426-6.363 1.144-2.239.856-3.47 2.43-3.829 4.72-.433 2.503.215 5.222.29 7.726.144 2.933.07 5.863.07 8.797 0 .5 3.324 0 3.324-.86 0-2.289.074-4.648 0-6.937 0-.715-.07-1.36-.07-2.075 1.156-.5 3.105 0 4.261.145.942.07 1.81-.145 2.75-.215 0 1.93.07 3.863.145 5.793.07 1 .434 2.934-.289 3.793-.363.426 1.227.285 1.3.285.65-.144 1.516-.36 1.95-.86.797-.929.363-3.148.363-4.292-.074-1.57-.074-3.219-.144-4.79 1.011-.144 2.023-.718 1.879-1.433zm-6.722-.141c-1.953-.075-3.832-.36-5.637.07-.074-1.074-.219-2.074-.289-3.149-.144-1.93.07-4.648 1.95-5.863.507-.289 1.445-.289 2.023-.36.797-.14 1.664-.355 2.387.145 1.011.645.796 3.075.796 4.078 0 1.645.145 3.36.29 5.004-.434.075-.942.075-1.446.075zM18.82 4.078c-.074.14 0 .356.145.5v.43c.07.215.215.355.36.43.363.214.722.214 1.085.214a3.61 3.61 0 001.227-.43c.074-.074.144-.144.218-.214.434-.285.793-.715.649-1.145-.434-.93-.36-1.86-.36-2.863 0-.785-.796-1.07-1.519-1-.578.07-1.805.5-1.805 1.29 0 .855-.074 1.714.07 2.503-.07.07-.07.21-.07.285zm61.793 28.969c-1.59-.574-3.324-.645-4.843-.785-1.59-.145-3.25-.43-4.915-.575-1.66.07-3.324 0-4.984.145l-4.918.285c-6.504.285-13.078.285-19.586.07-6.574-.14-13.082-.5-19.73-.43-3.325 0-6.578.075-9.903.216-1.66.289-3.25.5-4.914.93-1.59.429-3.18.929-4.84 1.074 1.66.359 3.325.285 4.985.285 1.59 0 3.254.144 4.914.215 3.254-.141 6.508-.215 9.758-.286 6.504 0 13.082.356 19.66.43 6.578.14 13.152.215 19.73-.144l4.914-.286c1.59-.07 3.18-.144 4.844-.07 1.66-.144 3.25-.36 4.914-.504 1.66-.21 3.254-.64 4.844-.5h.07v-.07c0-.145-.07-.285-.07-.5 0 .14-.074.285-.074.355zm0 0"/></svg>
